;FLAVOR:Marlin
;TIME:4926
;Filament used: 14.9154m
;Layer height: 0.32
;MINX:123.4
;MINY:157.4
;MINZ:0.32
;MAXX:226.6
;MAXY:192.6
;MAXZ:77.84
;Generated with Cura_SteamEngine 5.0.0
M140 S60
M105
M190 S60
M104 S190
M105
M109 S190
M82 ;absolute extrusion mode
M201 X500.00 Y500.00 Z100.00 E5000.00 ;Setup machine max acceleration
M203 X500.00 Y500.00 Z10.00 E50.00 ;Setup machine max feedrate
M204 P500.00 R1000.00 T500.00 ;Setup Print/Retract/Travel acceleration
M205 X8.00 Y8.00 Z0.40 E5.00 ;Setup Jerk
M220 S100 ;Reset Feedrate
M221 S100 ;Reset Flowrate

G28 ;Home
M420 S1 Z2 ;Enable ABL using saved Mesh and Fade Height

G92 E0 ;Reset Extruder
G1 Z2.0 F3000 ;Move Z Axis up
G1 X10.1 Y20 Z0.28 F5000.0 ;Move to start position
G1 X10.1 Y200.0 Z0.28 F1500.0 E15 ;Draw the first line
G1 X10.4 Y200.0 Z0.28 F5000.0 ;Move to side a little
G1 X10.4 Y20 Z0.28 F1500.0 E30 ;Draw the second line
G92 E0 ;Reset Extruder
G1 Z2.0 F3000 ;Move Z Axis up

G92 E0
G92 E0
G1 F2700 E-5
;LAYER_COUNT:242
;LAYER:0
M107
G1 F300 Z0.72
G0 F6000 X126.417 Y158.937 Z0.72
G1 F300 Z0.72
G0 F6000 X123.4 Y165
;TYPE:SKIRT
G1 F300 Z0.32
G1 F2700 E0
G1 F1200 X123.44 Y164.222 E0.10965
G1 X123.559 Y163.451 E0.21946
G1 X123.757 Y162.697 E0.32919
G1 X124.031 Y161.968 E0.43881
G1 X124.378 Y161.27 E0.54853
G1 X124.795 Y160.611 E0.6583
G1 X125.278 Y159.999 E0.76804
G1 X125.82 Y159.439 E0.87774
G1 X126.417 Y158.937 E0.98753
G1 X127.062 Y158.5 E1.09719
G1 X127.748 Y158.131 E1.20683
G1 X128.469 Y157.834 E1.31659
G1 X129.217 Y157.612 E1.42642
G1 X129.983 Y157.468 E1.53613
G1 X131 Y157.4 E1.6796
G1 X219 Y157.4 E14.0662
G1 X219.778 Y157.44 E14.17586
G1 X220.549 Y157.559 E14.28566
G1 X221.303 Y157.757 E14.39539
G1 X222.032 Y158.031 E14.50501
G1 X222.73 Y158.378 E14.61473
G1 X223.389 Y158.795 E14.7245
G1 X224.001 Y159.278 E14.83424
G1 X224.561 Y159.82 E14.94394
G1 X225.063 Y160.417 E15.05373
G1 X225.5 Y161.062 E15.16339
G1 X225.869 Y161.748 E15.27304
G1 X226.166 Y162.469 E15.38279
G1 X226.388 Y163.217 E15.49262
G1 X226.532 Y163.983 E15.60233
G1 X226.6 Y165 E15.7458
G1 X226.6 Y185 E18.56094
G1 X226.56 Y185.778 E18.67059
G1 X226.441 Y186.549 E18.7804
G1 X226.243 Y187.303 E18.89013
G1 X225.969 Y188.032 E18.99975
G1 X225.622 Y188.73 E19.10947
G1 X225.205 Y189.389 E19.21924
G1 X224.722 Y190.001 E19.32897
G1 X224.18 Y190.561 E19.43867
G1 X223.583 Y191.063 E19.54846
G1 X222.938 Y191.5 E19.65813
G1 X222.252 Y191.869 E19.76777
G1 X221.531 Y192.166 E19.87753
G1 X220.783 Y192.388 E19.98735
G1 X220.017 Y192.532 E20.09706
G1 X219 Y192.6 E20.24053
G1 X131 Y192.6 E32.62714
G1 X130.222 Y192.56 E32.73679
G1 X129.451 Y192.441 E32.8466
G1 X128.697 Y192.243 E32.95633
G1 X127.968 Y191.969 E33.06595
G1 X127.27 Y191.622 E33.17567
G1 X126.611 Y191.205 E33.28544
G1 X125.999 Y190.722 E33.39518
G1 X125.439 Y190.18 E33.50487
G1 X124.937 Y189.583 E33.61467
G1 X124.5 Y188.938 E33.72433
G1 X124.131 Y188.252 E33.83397
G1 X123.834 Y187.531 E33.94373
G1 X123.612 Y186.783 E34.05355
G1 X123.468 Y186.017 E34.16326
G1 X123.4 Y185 E34.30673
G1 X123.4 Y165 E37.12187
G0 F6000 X124.2 Y165
G1 F1200 X124.24 Y164.264 E37.22562
G1 X124.359 Y163.536 E37.32945
G1 X124.557 Y162.826 E37.4332
G1 X124.83 Y162.141 E37.537
G1 X125.176 Y161.49 E37.64077
G1 X125.59 Y160.88 E37.74454
G1 X126.068 Y160.319 E37.84828
G1 X126.604 Y159.812 E37.95213
G1 X127.191 Y159.367 E38.05581
G1 X127.824 Y158.987 E38.15973
G1 X128.493 Y158.679 E38.2634
G1 X129.192 Y158.445 E38.36715
G1 X129.913 Y158.287 E38.47105
G1 X131 Y158.2 E38.62454
G1 X219 Y158.2 E51.01115
G1 X219.736 Y158.24 E51.1149
G1 X220.464 Y158.359 E51.21873
G1 X221.174 Y158.557 E51.32248
G1 X221.859 Y158.83 E51.42627
G1 X222.51 Y159.176 E51.53004
G1 X223.12 Y159.59 E51.63381
G1 X223.681 Y160.068 E51.73755
G1 X224.188 Y160.604 E51.8414
G1 X224.633 Y161.191 E51.94509
G1 X225.013 Y161.824 E52.04901
G1 X225.321 Y162.493 E52.15267
G1 X225.555 Y163.192 E52.25643
G1 X225.713 Y163.913 E52.36032
G1 X225.8 Y165 E52.51382
G1 X225.8 Y185 E55.32895
G1 X225.76 Y185.736 E55.4327
G1 X225.641 Y186.464 E55.53653
G1 X225.443 Y187.174 E55.64028
G1 X225.17 Y187.859 E55.74408
G1 X224.824 Y188.51 E55.84785
G1 X224.41 Y189.12 E55.95162
G1 X223.932 Y189.681 E56.05536
G1 X223.396 Y190.188 E56.15921
G1 X222.809 Y190.633 E56.26289
G1 X222.176 Y191.013 E56.36681
G1 X221.507 Y191.321 E56.47048
G1 X220.808 Y191.555 E56.57424
G1 X220.087 Y191.713 E56.67813
G1 X219 Y191.8 E56.83162
G1 X131 Y191.8 E69.21823
G1 X130.264 Y191.76 E69.32198
G1 X129.536 Y191.641 E69.42581
G1 X128.826 Y191.443 E69.52956
G1 X128.141 Y191.17 E69.63335
G1 X127.49 Y190.824 E69.73713
G1 X126.88 Y190.41 E69.84089
G1 X126.319 Y189.932 E69.94464
G1 X125.812 Y189.396 E70.04849
G1 X125.367 Y188.809 E70.15217
G1 X124.987 Y188.176 E70.25609
G1 X124.679 Y187.507 E70.35976
G1 X124.445 Y186.808 E70.46351
G1 X124.287 Y186.087 E70.56741
G1 X124.2 Y185 E70.7209
G1 X124.2 Y165 E73.53604
G0 F6000 X125 Y165
G1 F1200 X125.04 Y164.309 E73.63346
G1 X125.159 Y163.626 E73.73105
G1 X125.357 Y162.963 E73.82844
G1 X125.629 Y162.326 E73.92594
G1 X125.973 Y161.725 E74.02341
G1 X126.384 Y161.167 E74.12096
G1 X126.856 Y160.661 E74.21836
G1 X127.384 Y160.212 E74.31591
G1 X127.959 Y159.827 E74.41332
G1 X128.576 Y159.512 E74.51083
G1 X129.224 Y159.269 E74.60824
G1 X129.897 Y159.102 E74.70584
G1 X130.583 Y159.014 E74.80319
G1 X131 Y159 E74.86192
G1 X219 Y159 E87.24853
G1 X219.691 Y159.04 E87.34595
G1 X220.374 Y159.159 E87.44354
G1 X221.037 Y159.357 E87.54093
G1 X221.674 Y159.629 E87.63843
G1 X222.275 Y159.973 E87.7359
G1 X222.833 Y160.384 E87.83345
G1 X223.339 Y160.856 E87.93085
G1 X223.788 Y161.384 E88.0284
G1 X224.173 Y161.959 E88.12581
G1 X224.488 Y162.576 E88.22332
G1 X224.731 Y163.224 E88.32073
G1 X224.898 Y163.897 E88.41833
G1 X224.986 Y164.583 E88.51568
G1 X225 Y165 E88.57441
G1 X225 Y185 E91.38955
G1 X224.96 Y185.691 E91.48698
G1 X224.841 Y186.374 E91.58456
G1 X224.643 Y187.037 E91.68196
G1 X224.371 Y187.674 E91.77945
G1 X224.027 Y188.275 E91.87692
G1 X223.616 Y188.833 E91.97447
G1 X223.144 Y189.339 E92.07187
G1 X222.616 Y189.788 E92.16943
G1 X222.041 Y190.173 E92.26683
G1 X221.424 Y190.488 E92.36434
G1 X220.776 Y190.731 E92.46175
G1 X220.103 Y190.898 E92.55936
G1 X219.417 Y190.986 E92.65671
G1 X219 Y191 E92.71543
G1 X131 Y191 E105.10204
G1 X130.309 Y190.96 E105.19947
G1 X129.626 Y190.841 E105.29705
G1 X128.963 Y190.643 E105.39445
G1 X128.326 Y190.371 E105.49194
G1 X127.725 Y190.027 E105.58941
G1 X127.167 Y189.616 E105.68696
G1 X126.661 Y189.144 E105.78436
G1 X126.212 Y188.616 E105.88192
G1 X125.827 Y188.041 E105.97932
G1 X125.512 Y187.424 E106.07683
G1 X125.269 Y186.776 E106.17424
G1 X125.102 Y186.103 E106.27185
G1 X125.014 Y185.417 E106.3692
G1 X125 Y185 E106.42793
G1 X125 Y165 E109.24306
G0 F6000 X125.8 Y165
G1 F1200 X125.84 Y164.357 E109.33375
G1 X125.959 Y163.723 E109.42454
G1 X126.156 Y163.109 E109.51531
G1 X126.427 Y162.524 E109.60606
G1 X126.769 Y161.977 E109.69686
G1 X127.175 Y161.477 E109.78752
G1 X127.64 Y161.031 E109.87821
G1 X128.157 Y160.646 E109.96894
G1 X128.718 Y160.327 E110.05978
G1 X129.314 Y160.081 E110.15054
G1 X129.935 Y159.91 E110.2412
G1 X130.573 Y159.818 E110.33193
G1 X131 Y159.8 E110.39209
G1 X219 Y159.8 E122.7787
G1 X219.643 Y159.84 E122.86938
G1 X220.277 Y159.959 E122.96018
G1 X220.891 Y160.156 E123.05094
G1 X221.476 Y160.427 E123.14169
G1 X222.023 Y160.769 E123.23249
G1 X222.523 Y161.175 E123.32315
G1 X222.969 Y161.64 E123.41384
G1 X223.354 Y162.157 E123.50458
G1 X223.673 Y162.718 E123.59541
G1 X223.919 Y163.314 E123.68617
G1 X224.09 Y163.935 E123.77683
G1 X224.182 Y164.573 E123.86757
G1 X224.2 Y165 E123.92772
G1 X224.2 Y185 E126.74286
G1 X224.16 Y185.643 E126.83354
G1 X224.041 Y186.277 E126.92434
G1 X223.844 Y186.891 E127.0151
G1 X223.573 Y187.476 E127.10585
G1 X223.231 Y188.023 E127.19666
G1 X222.825 Y188.523 E127.28732
G1 X222.36 Y188.969 E127.37801
G1 X221.843 Y189.354 E127.46874
G1 X221.282 Y189.673 E127.55958
G1 X220.686 Y189.919 E127.65033
G1 X220.065 Y190.09 E127.741
G1 X219.427 Y190.182 E127.83173
G1 X219 Y190.2 E127.89189
G1 X131 Y190.2 E140.27849
G1 X130.357 Y190.16 E140.36917
G1 X129.723 Y190.041 E140.45997
G1 X129.109 Y189.844 E140.55074
G1 X128.524 Y189.573 E140.64149
G1 X127.977 Y189.231 E140.73229
G1 X127.477 Y188.825 E140.82295
G1 X127.031 Y188.36 E140.91364
G1 X126.646 Y187.843 E141.00437
G1 X126.327 Y187.282 E141.09521
G1 X126.081 Y186.686 E141.18597
G1 X125.91 Y186.065 E141.27663
G1 X125.818 Y185.427 E141.36736
G1 X125.8 Y185 E141.42752
G1 X125.8 Y165 E144.24266
G0 F6000 X126.6 Y165
G1 F1200 X126.64 Y164.408 E144.32617
G1 X126.759 Y163.828 E144.40951
G1 X126.955 Y163.268 E144.49303
G1 X127.225 Y162.74 E144.5765
G1 X127.563 Y162.253 E144.65994
G1 X127.964 Y161.816 E144.74342
G1 X128.419 Y161.436 E144.82687
G1 X128.922 Y161.122 E144.91033
G1 X129.462 Y160.877 E144.99379
G1 X130.031 Y160.708 E145.07734
G1 X130.616 Y160.617 E145.16068
G1 X131 Y160.6 E145.21478
G1 X219 Y160.6 E157.60139
G1 X219.592 Y160.64 E157.6849
G1 X220.172 Y160.759 E157.76824
G1 X220.732 Y160.955 E157.85176
G1 X221.26 Y161.225 E157.93523
G1 X221.747 Y161.563 E158.01867
G1 X222.184 Y161.964 E158.10215
G1 X222.564 Y162.419 E158.1856
G1 X222.878 Y162.922 E158.26906
G1 X223.123 Y163.462 E158.35253
G1 X223.292 Y164.031 E158.43607
G1 X223.383 Y164.616 E158.51941
G1 X223.4 Y165 E158.57351
G1 X223.4 Y185 E161.38865
G1 X223.36 Y185.592 E161.47217
G1 X223.241 Y186.172 E161.55551
G1 X223.045 Y186.732 E161.63902
G1 X222.775 Y187.26 E161.72249
G1 X222.437 Y187.747 E161.80593
G1 X222.036 Y188.184 E161.88942
G1 X221.581 Y188.564 E161.97286
G1 X221.078 Y188.878 E162.05632
G1 X220.538 Y189.123 E162.13979
G1 X219.969 Y189.292 E162.22334
G1 X219.384 Y189.383 E162.30667
G1 X219 Y189.4 E162.36077
G1 X131 Y189.4 E174.74738
G1 X130.408 Y189.36 E174.8309
G1 X129.828 Y189.241 E174.91424
G1 X129.268 Y189.045 E174.99775
G1 X128.74 Y188.775 E175.08122
G1 X128.253 Y188.437 E175.16466
G1 X127.816 Y188.036 E175.24815
G1 X127.436 Y187.581 E175.33159
G1 X127.122 Y187.078 E175.41505
G1 X126.877 Y186.538 E175.49852
G1 X126.708 Y185.969 E175.58207
G1 X126.617 Y185.384 E175.6654
G1 X126.6 Y185 E175.7195
G1 X126.6 Y165 E178.53464
G0 F6000 X127.4 Y165
G1 F1200 X127.44 Y164.465 E178.61016
G1 X127.559 Y163.942 E178.68565
G1 X127.754 Y163.443 E178.76106
G1 X128.022 Y162.978 E178.83661
G1 X128.355 Y162.558 E178.91205
G1 X128.747 Y162.192 E178.98754
G1 X129.189 Y161.889 E179.06297
G1 X129.672 Y161.654 E179.13858
G1 X130.183 Y161.494 E179.21395
G1 X130.713 Y161.411 E179.28946
G1 X131 Y161.4 E179.32988
G1 X219 Y161.4 E191.71649
G1 X219.535 Y161.44 E191.79201
G1 X220.058 Y161.559 E191.8675
G1 X220.557 Y161.754 E191.94291
G1 X221.022 Y162.022 E192.01846
G1 X221.442 Y162.355 E192.0939
G1 X221.808 Y162.747 E192.16939
G1 X222.111 Y163.189 E192.24482
G1 X222.346 Y163.672 E192.32043
G1 X222.506 Y164.183 E192.3958
G1 X222.589 Y164.713 E192.47131
G1 X222.6 Y165 E192.51173
G1 X222.6 Y185 E195.32687
G1 X222.56 Y185.535 E195.40239
G1 X222.441 Y186.058 E195.47788
G1 X222.246 Y186.557 E195.55329
G1 X221.978 Y187.022 E195.62884
G1 X221.645 Y187.442 E195.70428
G1 X221.253 Y187.808 E195.77977
G1 X220.811 Y188.111 E195.8552
G1 X220.328 Y188.346 E195.93081
G1 X219.817 Y188.506 E196.00618
G1 X219.287 Y188.589 E196.08169
G1 X219 Y188.6 E196.12211
G1 X131 Y188.6 E208.50872
G1 X130.465 Y188.56 E208.58424
G1 X129.942 Y188.441 E208.65973
G1 X129.443 Y188.246 E208.73514
G1 X128.978 Y187.978 E208.81069
G1 X128.558 Y187.645 E208.88613
G1 X128.192 Y187.253 E208.96162
G1 X127.889 Y186.811 E209.03705
G1 X127.654 Y186.328 E209.11266
G1 X127.494 Y185.817 E209.18803
G1 X127.411 Y185.287 E209.26354
G1 X127.4 Y185 E209.30396
G1 X127.4 Y165 E212.1191
G0 F6000 X128.2 Y165
G1 F1200 X128.24 Y164.529 E212.18564
G1 X128.359 Y164.071 E212.25224
G1 X128.553 Y163.64 E212.31877
G1 X128.816 Y163.247 E212.38533
G1 X129.142 Y162.905 E212.45184
G1 X129.521 Y162.622 E212.51842
G1 X129.943 Y162.407 E212.58508
G1 X130.394 Y162.266 E212.65159
G1 X131 Y162.2 E212.7374
G1 X219 Y162.2 E225.124
G1 X219.471 Y162.24 E225.19054
G1 X219.929 Y162.359 E225.25714
G1 X220.36 Y162.553 E225.32367
G1 X220.753 Y162.816 E225.39023
G1 X221.095 Y163.142 E225.45674
G1 X221.378 Y163.521 E225.52332
G1 X221.593 Y163.943 E225.58998
G1 X221.734 Y164.394 E225.65649
G1 X221.8 Y165 E225.7423
G1 X221.8 Y185 E228.55743
G1 X221.76 Y185.471 E228.62397
G1 X221.641 Y185.929 E228.69058
G1 X221.447 Y186.36 E228.75711
G1 X221.184 Y186.753 E228.82367
G1 X220.858 Y187.095 E228.89017
G1 X220.479 Y187.378 E228.95675
G1 X220.057 Y187.593 E229.02341
G1 X219.606 Y187.734 E229.08993
G1 X219 Y187.8 E229.17573
G1 X131 Y187.8 E241.56234
G1 X130.529 Y187.76 E241.62887
G1 X130.071 Y187.641 E241.69548
G1 X129.64 Y187.447 E241.76201
G1 X129.247 Y187.184 E241.82857
G1 X128.905 Y186.858 E241.89507
G1 X128.622 Y186.479 E241.96165
G1 X128.407 Y186.057 E242.02832
G1 X128.266 Y185.606 E242.09483
G1 X128.2 Y185 E242.18063
G1 X128.2 Y165 E244.99577
G0 F6000 X129 Y165
G1 F1200 X129.04 Y164.602 E245.05207
G1 X129.158 Y164.221 E245.10821
G1 X129.35 Y163.87 E245.16453
G1 X129.607 Y163.565 E245.22067
G1 X129.92 Y163.317 E245.27688
G1 X130.276 Y163.136 E245.33309
G1 X130.661 Y163.029 E245.38934
G1 X131 Y163 E245.43723
G1 X219 Y163 E257.82383
G1 X219.398 Y163.04 E257.88014
G1 X219.779 Y163.158 E257.93628
G1 X220.13 Y163.35 E257.99259
G1 X220.435 Y163.607 E258.04873
G1 X220.683 Y163.92 E258.10494
G1 X220.864 Y164.276 E258.16116
G1 X220.971 Y164.661 E258.2174
G1 X221 Y165 E258.26529
G1 X221 Y185 E261.08043
G1 X220.96 Y185.398 E261.13673
G1 X220.842 Y185.779 E261.19288
G1 X220.65 Y186.13 E261.24919
G1 X220.393 Y186.435 E261.30533
G1 X220.08 Y186.683 E261.36154
G1 X219.724 Y186.864 E261.41775
G1 X219.339 Y186.971 E261.474
G1 X219 Y187 E261.52189
G1 X131 Y187 E273.9085
G1 X130.602 Y186.96 E273.9648
G1 X130.221 Y186.842 E274.02094
G1 X129.87 Y186.65 E274.07726
G1 X129.565 Y186.393 E274.13339
G1 X129.317 Y186.08 E274.1896
G1 X129.136 Y185.724 E274.24582
G1 X129.029 Y185.339 E274.30206
G1 X129 Y185 E274.34996
G1 X129 Y165 E277.16509
G0 F6000 X129.8 Y165
G1 F1200 X129.84 Y164.693 E277.20867
G1 X129.957 Y164.407 E277.25217
G1 X130.143 Y164.16 E277.29569
G1 X130.386 Y163.969 E277.33919
G1 X130.67 Y163.846 E277.38276
G1 X131 Y163.8 E277.42965
G1 X219 Y163.8 E289.81626
G1 X219.307 Y163.84 E289.85984
G1 X219.593 Y163.957 E289.90333
G1 X219.84 Y164.143 E289.94686
G1 X220.031 Y164.386 E289.99036
G1 X220.154 Y164.67 E290.03392
G1 X220.2 Y165 E290.08082
G1 X220.2 Y185 E292.89596
G1 X220.16 Y185.307 E292.93954
G1 X220.043 Y185.593 E292.98303
G1 X219.857 Y185.84 E293.02655
G1 X219.614 Y186.031 E293.07006
G1 X219.33 Y186.154 E293.11362
G1 X219 Y186.2 E293.16052
G1 X131 Y186.2 E305.54713
G1 X130.693 Y186.16 E305.59071
G1 X130.407 Y186.043 E305.6342
G1 X130.16 Y185.857 E305.67772
G1 X129.969 Y185.614 E305.72123
G1 X129.846 Y185.33 E305.76479
G1 X129.8 Y185 E305.81169
G1 X129.8 Y165 E308.62683
G0 F6000 X130.6 Y165
G1 F1200 X130.64 Y164.827 E308.65182
G1 X130.75 Y164.688 E308.67677
G1 X131 Y164.6 E308.71408
G1 X219 Y164.6 E321.10068
G1 X219.173 Y164.64 E321.12568
G1 X219.312 Y164.75 E321.15063
G1 X219.4 Y165 E321.18793
G1 X219.4 Y185 E324.00307
G1 X219.361 Y185.173 E324.02803
G1 X219.25 Y185.312 E324.05307
G1 X219 Y185.4 E324.09038
G1 X131 Y185.4 E336.47698
G1 X130.827 Y185.361 E336.50194
G1 X130.688 Y185.25 E336.52698
G1 X130.6 Y185 E336.56429
G1 X130.6 Y165 E339.37943
G1 F2700 E334.37943
G1 F300 Z0.72
;MESH:pen_caddy.stl
G0 F6000 X131.4 Y184.6 Z0.72
;TYPE:WALL-OUTER
G1 F300 Z0.32
G1 F2700 E339.37943
G1 F1200 X218.6 Y184.6 E350.05247
G1 X218.6 Y165.4 E352.4025
G1 X131.4 Y165.4 E363.07554
G1 X131.4 Y184.6 E365.42557
G0 F6000 X132.2 Y183.8
;TYPE:WALL-INNER
G1 F1200 X217.8 Y183.8 E375.90278
G1 X217.8 Y166.2 E378.05697
G1 X132.2 Y166.2 E388.53418
G1 X132.2 Y183.8 E390.68837
G0 F6000 X133 Y183
G1 F1200 X217 Y183 E400.96975
G1 X217 Y167 E402.9281
G1 X133 Y167 E413.20948
G1 X133 Y183 E415.16783
G0 F6000 X133.72 Y182.28
;TYPE:SKIN
G1 F1200 X216.28 Y182.28 E425.27295
G1 X216.28 Y167.72 E427.05506
G1 X133.72 Y167.72 E437.16018
G1 X133.72 Y182.28 E438.94228
G0 F6000 X134.361 Y181.879
G1 F1200 X134.119 Y181.637 E438.98417
